gtk/icons/scalable/actions/function-linear-symbolic.svg

<?xml version="1.0" encoding="UTF-8"?>
<svg xmlns="http://www.w3.org/2000/svg" xmlns:xlink="http://www.w3.org/1999/xlink" height="16px" viewBox="0 0 16 16" width="16px"><filter id="a" height="100%" width="100%" x="0%" y="0%"><feColorMatrix in="SourceGraphic" type="matrix" values="0 0 0 0 1 0 0 0 0 1 0 0 0 0 1 0 0 0 1 0"/></filter><mask id="b"><g filter="url(#a)"><path d="m 0 0 h 16 v 16 h -16 z" fill-opacity="0.3"/></g></mask><clipPath id="c"><path d="m 0 0 h 1600 v 1200 h -1600 z"/></clipPath><mask id="d"><g filter="url(#a)"><path d="m 0 0 h 16 v 16 h -16 z" fill-opacity="0.05"/></g></mask><clipPath id="e"><path d="m 0 0 h 1600 v 1200 h -1600 z"/></clipPath><mask id="f"><g filter="url(#a)"><path d="m 0 0 h 16 v 16 h -16 z" fill-opacity="0.05"/></g></mask><clipPath id="g"><path d="m 0 0 h 1600 v 1200 h -1600 z"/></clipPath><mask id="h"><g filter="url(#a)"><path d="m 0 0 h 16 v 16 h -16 z" fill-opacity="0.05"/></g></mask><clipPath id="i"><path d="m 0 0 h 1600 v 1200 h -1600 z"/></clipPath><mask id="j"><g filter="url(#a)"><path d="m 0 0 h 16 v 16 h -16 z" fill-opacity="0.05"/></g></mask><clipPath id="k"><path d="m 0 0 h 1600 v 1200 h -1600 z"/></clipPath><mask id="l"><g filter="url(#a)"><path d="m 0 0 h 16 v 16 h -16 z" fill-opacity="0.05"/></g></mask><clipPath id="m"><path d="m 0 0 h 1600 v 1200 h -1600 z"/></clipPath><mask id="n"><g filter="url(#a)"><path d="m 0 0 h 16 v 16 h -16 z" fill-opacity="0.05"/></g></mask><clipPath id="o"><path d="m 0 0 h 1600 v 1200 h -1600 z"/></clipPath><mask id="p"><g filter="url(#a)"><path d="m 0 0 h 16 v 16 h -16 z" fill-opacity="0.3"/></g></mask><clipPath id="q"><path d="m 0 0 h 1600 v 1200 h -1600 z"/></clipPath><mask id="r"><g filter="url(#a)"><path d="m 0 0 h 16 v 16 h -16 z" fill-opacity="0.5"/></g></mask><clipPath id="s"><path d="m 0 0 h 1600 v 1200 h -1600 z"/></clipPath><g clip-path="url(#c)" mask="url(#b)" transform="matrix(1 0 0 1 -16 -816)"><path d="m 562.460938 212.058594 h 10.449218 c -1.183594 0.492187 -1.296875 2.460937 0 3 h -10.449218 z m 0 0" fill="#2e3436"/></g><g clip-path="url(#e)" mask="url(#d)" transform="matrix(1 0 0 1 -16 -816)"><path d="m 16 748 h 1 v 1 h -1 z m 0 0" fill="#2e3436" fill-rule="evenodd"/></g><g clip-path="url(#g)" mask="url(#f)" transform="matrix(1 0 0 1 -16 -816)"><path d="m 17 747 h 1 v 1 h -1 z m 0 0" fill="#2e3436" fill-rule="evenodd"/></g><g clip-path="url(#i)" mask="url(#h)" transform="matrix(1 0 0 1 -16 -816)"><path d="m 18 750 h 1 v 1 h -1 z m 0 0" fill="#2e3436" fill-rule="evenodd"/></g><g clip-path="url(#k)" mask="url(#j)" transform="matrix(1 0 0 1 -16 -816)"><path d="m 16 750 h 1 v 1 h -1 z m 0 0" fill="#2e3436" fill-rule="evenodd"/></g><g clip-path="url(#m)" mask="url(#l)" transform="matrix(1 0 0 1 -16 -816)"><path d="m 17 751 h 1 v 1 h -1 z m 0 0" fill="#2e3436" fill-rule="evenodd"/></g><g clip-path="url(#o)" mask="url(#n)" transform="matrix(1 0 0 1 -16 -816)"><path d="m 19 751 h 1 v 1 h -1 z m 0 0" fill="#2e3436" fill-rule="evenodd"/></g><g clip-path="url(#q)" mask="url(#p)" transform="matrix(1 0 0 1 -16 -816)"><path d="m 136 776 v 7 h 7 v -7 z m 0 0" fill="#2e3436"/></g><g clip-path="url(#s)" mask="url(#r)" transform="matrix(1 0 0 1 -16 -816)"><path d="m 219 758 h 3 v 12 h -3 z m 0 0" fill="#2e3436"/></g><g fill="#2e3436"><path d="m 11.507812 3.078125 l -8.429687 8.429687 c 0.765625 0.039063 1.375 0.648438 1.414063 1.414063 l 8.429687 -8.429687 c -0.765625 -0.039063 -1.375 -0.648438 -1.414063 -1.414063 z m 0 0"/><path d="m 3 11 c -1.097656 0 -2 0.902344 -2 2 s 0.902344 2 2 2 s 2 -0.902344 2 -2 s -0.902344 -2 -2 -2 z m 0 1 c 0.558594 0 1 0.441406 1 1 s -0.441406 1 -1 1 s -1 -0.441406 -1 -1 s 0.441406 -1 1 -1 z m 0 0"/><path d="m 13 1 c -1.097656 0 -2 0.902344 -2 2 s 0.902344 2 2 2 s 2 -0.902344 2 -2 s -0.902344 -2 -2 -2 z m 0 1 c 0.558594 0 1 0.441406 1 1 s -0.441406 1 -1 1 s -1 -0.441406 -1 -1 s 0.441406 -1 1 -1 z m 0 0"/></g></svg>

<svg height="16px" width="16px">
  <path
    d="M 13 1 C 11.902344 1 11 1.902344 11 3 C 11 3.1786207 11.023617 3.3523482 11.068359 3.5175781 L 3.5175781 11.068359 C 3.3523482 11.023617 3.1786207 11 3 11 C 1.902344 11 1 11.902344 1 13 C 1 14.097656 1.902344 15 3 15 C 4.097656 15 5 14.097656 5 13 C 5 12.821379 4.9763835 12.647652 4.9316406 12.482422 L 12.482422 4.9316406 C 12.647652 4.9763835 12.821379 5 13 5 C 14.097656 5 15 4.097656 15 3 C 15 1.902344 14.097656 1 13 1 z M 13 2 C 13.558594 2 14 2.441406 14 3 C 14 3.558594 13.558594 4 13 4 C 12.441406 4 12 3.558594 12 3 C 12 2.441406 12.441406 2 13 2 z M 3 12 C 3.558594 12 4 12.441406 4 13 C 4 13.558594 3.558594 14 3 14 C 2.441406 14 2 13.558594 2 13 C 2 12.441406 2.441406 12 3 12 z"/>
</svg>
